app/assets/img/ic-basic-needs-&-shelter.svg

<svg fill="none" height="41" viewBox="0 0 44 41" width="44" xmlns="http://www.w3.org/2000/svg"><path clip-rule="evenodd" d="m0 40.3333v-37.96075-2.37255h2.35294 8.70586 5.8824 5.8823v2.37255s-.5643 4.7451-3.6734 4.7451h-8.0913v-4.7451h-8.70586v37.96075zm20.4235-19.6921h15.7177c4.342 0 7.8588 3.5249 7.8588 7.8768v11.8153h-39.29412v-5.9076h15.71762zm-1.9647 5.9076c0 3.2689-2.6327 5.9077-5.8941 5.9077s-5.89411-2.6388-5.89411-5.9077 2.63271-5.9076 5.89411-5.9076 5.8941 2.6387 5.8941 5.9076zm-6.4481-17.43254-1.9734-1.28151-2.58433 3.97955 1.97334 1.2815zm3.0481.37394h2.353v4.7451h-2.353zm7.3745-1.65545-1.9734 1.28151 2.5844 3.97954 1.9733-1.2815z" fill="#ffc369" fill-rule="evenodd"/></svg>

<svg width="44" height="41" viewBox="0 0 44 41" fill="none" xmlns="http://www.w3.org/2000/svg">
<path fill-rule="evenodd" clip-rule="evenodd" d="M0 40.3333V2.37255V0H2.35294H11.0588H16.9412H22.8235V2.37255C22.8235 2.37255 22.2592 7.11765 19.1501 7.11765H11.0588V2.37255H2.35294V40.3333H0ZM20.4235 20.6412H36.1412C40.4832 20.6412 44 24.1661 44 28.518V40.3333H4.70588V34.4257H20.4235V20.6412ZM18.4588 26.5488C18.4588 29.8177 15.8261 32.4565 12.5647 32.4565C9.3033 32.4565 6.67059 29.8177 6.67059 26.5488C6.67059 23.2799 9.3033 20.6412 12.5647 20.6412C15.8261 20.6412 18.4588 23.2799 18.4588 26.5488ZM12.0107 9.11626L10.0373 7.83475L7.45297 11.8143L9.42631 13.0958L12.0107 9.11626ZM15.0588 9.4902H17.4118V14.2353H15.0588V9.4902ZM22.4333 7.83475L20.4599 9.11626L23.0443 13.0958L25.0176 11.8143L22.4333 7.83475Z" fill="#FFC369"/>
</svg>
